packages/components/icons/assets/UnlockOutline.svg

<svg viewBox="0 0 24 24" xmlns="http://www.w3.org/2000/svg" data-title="UnlockOutline" fill="currentColor" stroke="none">
  <path d="M17.5928 22H6.40715C5.07733 22 4 20.9334 4 19.6168V11.309C4 10.1007 4.91741 9.09248 6.09574 8.94249V7.84255C6.09574 6.28432 6.71015 4.80941 7.82956 3.70948C8.94897 2.60122 10.4219 1.96792 12.0295 2.00125C12.7954 2.00125 13.5529 2.15124 14.2683 2.44289C14.9921 2.74287 15.6318 3.17618 16.1789 3.72614C16.566 4.11779 16.566 4.75108 16.162 5.14272C15.7664 5.52603 15.1268 5.52603 14.7312 5.12606C14.3693 4.76775 13.9569 4.48443 13.4855 4.29278C13.0142 4.10112 12.526 4.01779 12.0042 4.00113C10.9774 4.00113 9.9758 4.40944 9.25197 5.12606C8.52814 5.84268 8.11573 6.81762 8.11573 7.84255V8.91749H17.5928C18.9227 8.91749 20 9.98409 20 11.3007V19.6085C20 20.9251 18.9227 21.9917 17.5928 21.9917V22ZM6.40715 10.9257C6.19674 10.9257 6.01999 11.1007 6.01999 11.309V19.6168C6.01999 19.8251 6.19674 20.0001 6.40715 20.0001H17.5928C17.8033 20.0001 17.98 19.8251 17.98 19.6168V11.309C17.98 11.1007 17.8033 10.9257 17.5928 10.9257H6.40715ZM11.9116 17.7753C10.8006 17.7753 9.89164 16.8753 9.89164 15.7754C9.89164 14.6755 10.8006 13.7755 11.9116 13.7755C13.0226 13.7755 13.9316 14.6755 13.9316 15.7754C13.9316 16.8753 13.0226 17.7753 11.9116 17.7753Z"/>
</svg>

<svg viewBox="0 0 24 24" xmlns="http://www.w3.org/2000/svg" data-title="UnlockOutline" fill="currentColor" stroke="none">
  <path d="m17.59,22H6.41c-1.33,0-2.41-1.07-2.41-2.38v-8.31c0-1.21.92-2.22,2.1-2.37v-1.1c0-1.56.61-3.03,1.73-4.13,1.12-1.11,2.59-1.74,4.2-1.71.77,0,1.52.15,2.24.44.72.3,1.36.73,1.91,1.28.39.39.39,1.02-.02,1.42-.4.38-1.04.38-1.43-.02-.36-.36-.77-.64-1.25-.83-.47-.19-.96-.27-1.48-.29-1.03,0-2.03.41-2.75,1.12-.72.72-1.14,1.69-1.14,2.72v1.07h9.48c1.33,0,2.41,1.07,2.41,2.38v8.31c0,1.32-1.08,2.38-2.41,2.38h0ZM6.41,10.93c-.21,0-.39.18-.39.38v8.31c0,.21.18.38.39.38h11.19c.21,0,.39-.17.39-.38v-8.31c0-.21-.18-.38-.39-.38H6.41Zm5.5,6.85c-1.11,0-2.02-.9-2.02-2s.91-2,2.02-2,2.02.9,2.02,2-.91,2-2.02,2Z"/>
</svg>
